contributed-vectors/zappka.svg

<svg xmlns="http://www.w3.org/2000/svg" xml:space="preserve" style="fill-rule:evenodd;clip-rule:evenodd;stroke-linejoin:round;stroke-miterlimit:2" viewBox="0 0 192 192"><circle cx="88" cy="88" r="88" style="fill:#98dc9a" transform="translate(8 8)"/><path d="M12.2 5.5c0 .2-.1.4-.2.7L9.9 9.8c-1.3 2.2-2.6 4.4-3.8 6.6 0 .1-.1.2-.1.3h6.2v3.6H0c0-.2.1-.4.2-.6.6-1.1 1.2-2.1 1.8-3.1.6-1 1.1-1.9 1.7-2.9.8-1.4 1.6-2.8 2.4-4.1.1-.1.1-.2.2-.4H.5V5.5h11.7Z" style="fill:#fff;fill-rule:nonzero" transform="translate(72.58 53.15) scale(3.83945)"/><ellipse cx="96" cy="61.5" rx="8" ry="8.5" style="fill:#fff" transform="matrix(1.05856 0 0 .95707 -4.132 2.185)"/></svg>

<?xml version="1.0" encoding="UTF-8" standalone="no"?>
<!DOCTYPE svg PUBLIC "-//W3C//DTD SVG 1.1//EN" "http://www.w3.org/Graphics/SVG/1.1/DTD/svg11.dtd">
<svg width="100%" height="100%" viewBox="0 0 192 192" version="1.1" xmlns="http://www.w3.org/2000/svg" xmlns:xlink="http://www.w3.org/1999/xlink" xml:space="preserve" xmlns:serif="http://www.serif.com/" style="fill-rule:evenodd;clip-rule:evenodd;stroke-linejoin:round;stroke-miterlimit:2;">
    <g transform="matrix(1,0,0,1,8,8)">
        <circle cx="88" cy="88" r="88" style="fill:rgb(152,220,154);"/>
    </g>
    <g transform="matrix(3.83945,0,0,3.83945,72.5794,53.1499)">
        <path d="M12.2,5.5C12.2,5.7 12.1,5.9 12,6.2C11.3,7.4 10.6,8.6 9.9,9.8C8.6,12 7.3,14.2 6.1,16.4C6.1,16.5 6,16.6 6,16.7L12.2,16.7L12.2,20.3L0,20.3C0,20.1 0.1,19.9 0.2,19.7C0.8,18.6 1.4,17.6 2,16.6C2.6,15.6 3.1,14.7 3.7,13.7C4.5,12.3 5.3,10.9 6.1,9.6C6.2,9.5 6.2,9.4 6.3,9.2L0.5,9.2L0.5,5.5L12.2,5.5Z" style="fill:white;fill-rule:nonzero;"/>
    </g>
    <g transform="matrix(1.05856,0,0,0.957072,-4.13219,2.18453)">
        <ellipse cx="96" cy="61.5" rx="8" ry="8.5" style="fill:white;"/>
    </g>
</svg>
